;Sliced by ideaMaker 5.0.6.8380, 2024-10-25 02:25:26 UTC+0200
;Slicer Version: 5.0.6.8380
;Dimension: 330.000 250.000 320.000 0.400 0.400
;Plate Shape: 0
;Origin Center: 0
;Extruder Offset #1: 0.000 0.000
;Filament Diameter #1: 1.724
;Filament Diameter #2: 1.740
;Filament Compensation #1: 100.00
;Filament Compensation #2: 100.00
;Filament Density #1: 1240.00
;Filament Density #2: 1240.00
;Filament Type #1: PETG blanc
;Filament Type #2: PLA
;Filament Name #1: IFAST PETG BLANC SUNLU calibration Dimensions + Epaisseur
;Filament Name #2: IFAST PLA ROUGE
;Firmware: Marlin
;Bounding Box: 28.179 301.775 86.527 182.565 0.000 20.000
;Model Gap: 0.000
;Custom Toolhead: T1 T0
M221 T1 S100.00
G28
G0 X0 Y0 Z50 F3600
M190 S65
M104 T0 S205
M109 T1 S235
M109 T0 S205
G0 X0 Y6 Z0.3 F3600
T1
G92 E-19
G1 X330 E0 F2400
T0
G92 E-19
G0 X330 Y4 F3600
G1 X5 E0 F2400
; Température de l'enciente
; Attention au temperature du PLA  !
; On fixe la temperature de l'enceinte à 50°C
;M141 S50
; On fixe la temperature de l'enceinte à 40°C
M141 S40
M107
M1001
;TOTAL_NUM: 24
;PRINTING_TIME: 0
;REMAINING_TIME: 15580
;LAYER:0
;Z:0.200
;HEIGHT:0.200
M104 T1 S235
M221 T1 S101.00
;PRINTING: NON-OBJECT
;PRINTING_ID: -1
T1
M204 S1000.00
M205 X8.00 Y8.00
G0 F9000 X35.281 Y168.368
G0 F300 Z0.200
;TYPE:SKIRT
;WIDTH:0.480
G1 F1200 X34.966 Y168.473 E0.0137
G1 X34.572 Y168.695 E0.0323
G1 X34.252 Y168.968 E0.0496
G1 X34.118 Y169.131 E0.0582
G1 X33.824 Y169.626 E0.0819
G1 X33.722 Y169.946 E0.0957
G1 X33.653 Y170.396 E0.1144
G1 X33.650 Y179.569 E0.4917
G1 X33.738 Y180.120 E0.5146
G1 X33.851 Y180.432 E0.5283
G1 X34.055 Y180.788 E0.5451
G1 X34.299 Y181.079 E0.5608
G1 X34.460 Y181.220 E0.5696
G1 X34.938 Y181.513 E0.5926
G1 X35.306 Y181.638 E0.6086
G1 X35.792 Y181.710 E0.6288
G1 X44.929 Y181.710 E1.0046
G1 X45.480 Y181.622 E1.0275
G1 X45.792 Y181.509 E1.0412
G1 X46.148 Y181.305 E1.0580
G1 X46.439 Y181.061 E1.0737
G1 X46.580 Y180.900 E1.0825
G1 X46.873 Y180.422 E1.1055
G1 X46.998 Y180.054 E1.1215
G1 X47.070 Y179.568 E1.1417
G1 X47.063 Y170.345 E1.5210
G1 X46.981 Y169.878 E1.5405
G1 X46.885 Y169.602 E1.5525
G1 X46.572 Y169.088 E1.5773
G1 X46.431 Y168.932 E1.5859
G1 X46.135 Y168.686 E1.6017
G1 X45.787 Y168.487 E1.6182
G1 X45.467 Y168.373 E1.6322
G1 X44.994 Y168.294 E1.6519
G1 X35.753 Y168.293 E2.0320
G1 X35.281 Y168.368 E2.0516
G0 F9000 X35.316 Y167.920
G1 F1200 X45.406 Y167.919 E2.4666
G1 X45.787 Y167.965 E2.4823
G1 X46.130 Y168.070 E2.4971
G1 X46.445 Y168.227 E2.5116
G1 X46.741 Y168.444 E2.5267
G1 X46.977 Y168.691 E2.5407
G1 X47.176 Y168.989 E2.5555
G1 X47.317 Y169.301 E2.5695
G1 X47.410 Y169.668 E2.5851
G1 X47.445 Y170.063 E2.6014
G1 X47.441 Y180.046 E3.0120
G1 X47.396 Y180.422 E3.0275
G1 X47.290 Y180.770 E3.0425
G1 X47.133 Y181.085 E3.0570
G1 X46.918 Y181.377 E3.0719
G1 X46.665 Y181.619 E3.0863
G1 X46.511 Y181.732 E3.0941
G1 X46.206 Y181.898 E3.1084
G1 X45.867 Y182.017 E3.1232
G1 X45.703 Y182.049 E3.1301
G1 X45.298 Y182.085 E3.1468
G1 X35.314 Y182.081 E3.5574
G1 X34.933 Y182.035 E3.5732
G1 X34.590 Y181.930 E3.5879
G1 X34.275 Y181.773 E3.6024
G1 X33.983 Y181.558 E3.6173
G1 X33.741 Y181.305 E3.6317
G1 X33.628 Y181.151 E3.6396
G1 X33.462 Y180.846 E3.6538
G1 X33.343 Y180.507 E3.6686
G1 X33.311 Y180.343 E3.6755
G1 X33.275 Y179.938 E3.6922
G1 X33.279 Y169.954 E4.1028
G1 X33.325 Y169.573 E4.1186
G1 X33.430 Y169.230 E4.1333
G1 X33.587 Y168.915 E4.1478
G1 X33.802 Y168.623 E4.1627
G1 X34.055 Y168.381 E4.1771
G1 X34.209 Y168.268 E4.1850
G1 X34.514 Y168.102 E4.1993
G1 X34.847 Y167.986 E4.2138
G1 X35.316 Y167.920 E4.2332
G1 F2400 E3.1332
G0 F9000 X35.378 Y168.839
G1 F1500 E4.2332
G1 F1200 X35.810 Y168.770 E4.2512
G1 X44.973 Y168.774 E4.6281
G1 X45.364 Y168.842 E4.6444
G1 X45.570 Y168.916 E4.6534
G1 X45.846 Y169.070 E4.6664
G1 X46.110 Y169.289 E4.6805
G1 X46.197 Y169.389 E4.6859
G1 X46.440 Y169.784 E4.7050
G1 X46.521 Y170.018 E4.7152
G1 X46.583 Y170.366 E4.7297
G1 X46.590 Y179.550 E5.1074
G1 X46.527 Y179.962 E5.1246
G1 X46.449 Y180.197 E5.1347
G1 X46.202 Y180.604 E5.1543
G1 X46.115 Y180.706 E5.1598
G1 X45.857 Y180.923 E5.1737
G1 X45.576 Y181.080 E5.1869
G1 X45.342 Y181.161 E5.1971
G1 X44.910 Y181.230 E5.2151
G1 X35.810 Y181.230 E5.5893
G1 X35.398 Y181.167 E5.6065
G1 X35.163 Y181.089 E5.6167
G1 X34.756 Y180.842 E5.6362
G1 X34.654 Y180.755 E5.6418
G1 X34.437 Y180.497 E5.6556
G1 X34.280 Y180.216 E5.6689
G1 X34.199 Y179.982 E5.6790
G1 X34.130 Y179.550 E5.6970
G1 X34.130 Y170.450 E6.0713
G1 X34.193 Y170.038 E6.0884
G1 X34.271 Y169.803 E6.0986
G1 X34.518 Y169.396 E6.1182
G1 X34.605 Y169.294 E6.1237
G1 X34.863 Y169.077 E6.1376
G1 X35.144 Y168.920 E6.1508
G1 X35.378 Y168.839 E6.1610
G0 F9000 X35.316 Y169.368
G1 F1200 X35.462 Y169.312 E6.1674
G1 X35.810 Y169.250 E6.1819
G1 X44.973 Y169.254 E6.5588
G1 X45.271 Y169.313 E6.5713
G1 X45.389 Y169.361 E6.5765
G1 X45.607 Y169.486 E6.5868
G1 X45.794 Y169.650 E6.5971
G1 X45.992 Y169.956 E6.6121
G1 X46.048 Y170.102 E6.6185
G1 X46.110 Y170.450 E6.6330
G1 X46.110 Y179.550 E7.0073
G1 X46.054 Y179.882 E7.0211
G1 X45.999 Y180.029 E7.0276
G1 X45.797 Y180.347 E7.0431
G1 X45.614 Y180.509 E7.0531
G1 X45.404 Y180.632 E7.0631
G1 X45.258 Y180.688 E7.0696
G1 X44.910 Y180.750 E7.0841
G1 X35.810 Y180.750 E7.4583
G1 X35.478 Y180.694 E7.4722
G1 X35.331 Y180.639 E7.4786
G1 X35.013 Y180.437 E7.4941
G1 X34.851 Y180.254 E7.5042
G1 X34.728 Y180.044 E7.5142
G1 X34.672 Y179.898 E7.5206
G1 X34.610 Y179.550 E7.5351
G1 X34.610 Y170.450 E7.9094
G1 X34.666 Y170.118 E7.9232
G1 X34.721 Y169.971 E7.9297
G1 X34.923 Y169.653 E7.9452
G1 X35.106 Y169.491 E7.9552
G1 X35.316 Y169.368 E7.9652
G1 F2400 E6.8652
G0 F9000 X35.810 Y169.730
G1 F1500 E7.9652
G1 F1200 X44.910 Y169.730 E8.3395
G1 X45.031 Y169.746 E8.3445
G1 X45.150 Y169.777 E8.3496
G1 X45.368 Y169.902 E8.3599
G1 X45.455 Y169.989 E8.3649
G1 X45.578 Y170.199 E8.3750
G1 X45.630 Y170.450 E8.3855
G1 X45.630 Y179.550 E8.7597
G1 X45.583 Y179.790 E8.7698
G1 X45.458 Y180.008 E8.7801
G1 X45.371 Y180.095 E8.7852
G1 X45.161 Y180.218 E8.7952
G1 X44.910 Y180.270 E8.8057
G1 X35.810 Y180.270 E9.1800
G1 X35.570 Y180.223 E9.1900
G1 X35.352 Y180.098 E9.2004
G1 X35.265 Y180.011 E9.2054
G1 X35.142 Y179.801 E9.2154
G1 X35.090 Y179.550 E9.2260
G1 X35.090 Y170.450 E9.6002
G1 X35.137 Y170.210 E9.6103
G1 X35.262 Y169.992 E9.6206
G1 X35.349 Y169.905 E9.6257
G1 X35.559 Y169.782 E9.6357
G1 X35.810 Y169.730 E9.6462
G0 F9000 X35.810 Y170.210
G1 F1200 X44.910 Y170.210 E10.0205
G1 X45.029 Y170.241 E10.0255
G1 X45.116 Y170.328 E10.0306
G1 X45.150 Y170.450 E10.0358
G1 X45.150 Y179.550 E10.4100
G1 X45.119 Y179.669 E10.4151
G1 X45.032 Y179.756 E10.4201
G1 X44.910 Y179.790 E10.4253
G1 X35.810 Y179.790 E10.7996
G1 X35.691 Y179.759 E10.8046
G1 X35.604 Y179.672 E10.8097
G1 X35.570 Y179.550 E10.8149
G1 X35.570 Y170.450 E11.1892
G1 X35.601 Y170.331 E11.1942
G1 X35.688 Y170.244 E11.1993
G1 X35.810 Y170.210 E11.2045
G1 F2400 E10.1045
G0 F9000 X30.339 Y136.255
G1 F1500 E11.2045
G1 F1200 X29.927 Y136.192 E11.2216
G1 X29.692 Y136.114 E11.2318
G1 X29.285 Y135.867 E11.2514
G1 X29.183 Y135.780 E11.2569
G1 X28.966 Y135.522 E11.2708
G1 X28.809 Y135.241 E11.2840
G1 X28.728 Y135.007 E11.2942
G1 X28.659 Y134.575 E11.3122
G1 X28.659 Y115.475 E12.0977
G1 X28.722 Y115.063 E12.1148
G1 X28.800 Y114.828 E12.1250
G1 X29.047 Y114.421 E12.1446
G1 X29.134 Y114.319 E12.1501
G1 X29.392 Y114.102 E12.1639
G1 X29.673 Y113.945 E12.1772
G1 X29.907 Y113.864 E12.1874
G1 X30.339 Y113.795 E12.2053
G1 X49.502 Y113.799 E12.9934
G1 X49.893 Y113.867 E13.0098
G1 X50.099 Y113.941 E13.0188
G1 X50.375 Y114.095 E13.0318
G1 X50.639 Y114.314 E13.0459
G1 X50.726 Y114.414 E13.0513
G1 X50.969 Y114.809 E13.0704
G1 X51.050 Y115.043 E13.0806
G1 X51.119 Y115.475 E13.0986
G1 X51.119 Y134.575 E13.8840
G1 X51.056 Y134.987 E13.9012
G1 X50.978 Y135.222 E13.9114
G1 X50.731 Y135.629 E13.9309
G1 X50.644 Y135.731 E13.9365
G1 X50.386 Y135.948 E13.9503
G1 X50.105 Y136.105 E13.9636
G1 X49.871 Y136.186 E13.9737
G1 X49.439 Y136.255 E13.9917
G1 X30.339 Y136.255 E14.7772
G0 F9000 X30.339 Y135.775
G1 F1200 X30.007 Y135.719 E14.7911
G1 X29.860 Y135.664 E14.7975
G1 X29.542 Y135.462 E14.8130
G1 X29.380 Y135.279 E14.8231
G1 X29.257 Y135.069 E14.8331
G1 X29.201 Y134.923 E14.8395
G1 X29.139 Y134.575 E14.8540
G1 X29.139 Y115.475 E15.6395
G1 X29.195 Y115.143 E15.6534
G1 X29.250 Y114.996 E15.6598
G1 X29.452 Y114.678 E15.6753
G1 X29.635 Y114.516 E15.6854
G1 X29.845 Y114.393 E15.6954
G1 X29.991 Y114.337 E15.7018
G1 X30.339 Y114.275 E15.7164
G1 X49.502 Y114.279 E16.5044
G1 X49.800 Y114.338 E16.5169
G1 X49.918 Y114.386 E16.5222
G1 X50.136 Y114.511 E16.5325
G1 X50.323 Y114.675 E16.5427
G1 X50.521 Y114.981 E16.5577
G1 X50.577 Y115.127 E16.5642
G1 X50.639 Y115.475 E16.5787
G1 X50.639 Y134.575 E17.3642
G1 X50.583 Y134.907 E17.3780
G1 X50.528 Y135.054 E17.3845
G1 X50.326 Y135.372 E17.4000
G1 X50.143 Y135.534 E17.4100
G1 X49.933 Y135.657 E17.4200
G1 X49.787 Y135.713 E17.4265
G1 X49.439 Y135.775 E17.4410
G1 X30.339 Y135.775 E18.2265
G0 F9000 X30.339 Y135.295
G1 F1200 X30.099 Y135.248 E18.2365
G1 X29.881 Y135.123 E18.2469
G1 X29.794 Y135.036 E18.2519
G1 X29.671 Y134.826 E18.2620
G1 X29.619 Y134.575 E18.2725
G1 X29.619 Y115.475 E19.0580
G1 X29.666 Y115.235 E19.0680
G1 X29.791 Y115.017 E19.0784
G1 X29.878 Y114.930 E19.0834
G1 X30.088 Y114.807 E19.0934
G1 X30.339 Y114.755 E19.1040
G1 X49.439 Y114.755 E19.8895
G1 X49.560 Y114.771 E19.8945
G1 X49.679 Y114.802 E19.8995
G1 X49.897 Y114.927 E19.9099
G1 X49.984 Y115.014 E19.9149
G1 X50.107 Y115.224 E19.9250
G1 X50.159 Y115.475 E19.9355
G1 X50.159 Y134.575 E20.7210
G1 X50.112 Y134.815 E20.7310
G1 X49.987 Y135.033 E20.7414
G1 X49.900 Y135.120 E20.7464
G1 X49.690 Y135.243 E20.7564
G1 X49.439 Y135.295 E20.7670
G1 X30.339 Y135.295 E21.5525
G0 F9000 X30.339 Y134.815
G1 F1200 X30.220 Y134.784 E21.5575
G1 X30.133 Y134.697 E21.5626
G1 X30.099 Y134.575 E21.5678
G1 X30.099 Y115.475 E22.3533
G1 X30.130 Y115.356 E22.3583
G1 X30.217 Y115.269 E22.3634
G1 X30.339 Y115.235 E22.3686
G1 X49.439 Y115.235 E23.1541
G1 X49.558 Y115.266 E23.1592
G1 X49.645 Y115.353 E23.1642
G1 X49.679 Y115.475 E23.1694
G1 X49.679 Y134.575 E23.9549
G1 X49.648 Y134.694 E23.9600
G1 X49.561 Y134.781 E23.9650
G1 X49.439 Y134.815 E23.9702
G1 X30.339 Y134.815 E24.7557
G1 F2400 E23.6557
G0 F9000 X53.659 Y134.554
G1 F1500 E24.7557
G1 F1200 X53.659 Y115.454 E25.5412
G1 X53.722 Y115.042 E25.5584
G1 X53.800 Y114.807 E25.5685
G1 X54.047 Y114.400 E25.5881
G1 X54.134 Y114.298 E25.5936
G1 X54.392 Y114.081 E25.6075
G1 X54.673 Y113.924 E25.6207
G1 X54.907 Y113.843 E25.6309
G1 X55.339 Y113.774 E25.6489
G1 X74.502 Y113.778 E26.4370
G1 X74.893 Y113.846 E26.4533
G1 X75.099 Y113.920 E26.4623
G1 X75.375 Y114.074 E26.4753
G1 X75.639 Y114.293 E26.4894
G1 X75.726 Y114.393 E26.4949
G1 X75.969 Y114.788 E26.5139
G1 X76.050 Y115.022 E26.5241
G1 X76.119 Y115.454 E26.5421
G1 X76.119 Y134.554 E27.3276
G1 X76.056 Y134.966 E27.3448
G1 X75.978 Y135.201 E27.3549
G1 X75.731 Y135.608 E27.3745
G1 X75.644 Y135.710 E27.3800
G1 X75.386 Y135.927 E27.3939
G1 X75.105 Y136.084 E27.4071
G1 X74.871 Y136.165 E27.4173
G1 X74.439 Y136.234 E27.4353
G1 X55.339 Y136.234 E28.2208
G1 X54.927 Y136.171 E28.2379
G1 X54.692 Y136.093 E28.2481
G1 X54.285 Y135.846 E28.2677
G1 X54.183 Y135.759 E28.2732
G1 X53.966 Y135.501 E28.2871
G1 X53.809 Y135.220 E28.3003
G1 X53.728 Y134.986 E28.3105
G1 X53.659 Y134.554 E28.3285
G0 F9000 X54.139 Y134.554
G1 F1200 X54.139 Y115.454 E29.1140
G1 X54.195 Y115.122 E29.1278
G1 X54.250 Y114.975 E29.1343
G1 X54.452 Y114.657 E29.1498
G1 X54.635 Y114.495 E29.1598
G1 X54.845 Y114.372 E29.1698
G1 X54.991 Y114.316 E29.1763
G1 X55.339 Y114.254 E29.1908
G1 X74.502 Y114.258 E29.9789
G1 X74.800 Y114.317 E29.9914
G1 X74.918 Y114.365 E29.9966
G1 X75.136 Y114.490 E30.0069
G1 X75.323 Y114.654 E30.0172
G1 X75.521 Y114.960 E30.0322
G1 X75.577 Y115.106 E30.0386
G1 X75.639 Y115.454 E30.0531
G1 X75.639 Y134.554 E30.8386
G1 X75.583 Y134.886 E30.8525
G1 X75.528 Y135.033 E30.8589
G1 X75.326 Y135.351 E30.8744
G1 X75.143 Y135.513 E30.8845
G1 X74.933 Y135.636 E30.8945
G1 X74.787 Y135.692 E30.9009
G1 X74.439 Y135.754 E30.9154
G1 X55.339 Y135.754 E31.7009
G1 X55.007 Y135.698 E31.7148
G1 X54.860 Y135.643 E31.7212
G1 X54.542 Y135.441 E31.7367
G1 X54.380 Y135.258 E31.7468
G1 X54.257 Y135.048 E31.7568
G1 X54.201 Y134.902 E31.7632
G1 X54.139 Y134.554 E31.7777
G0 F9000 X54.619 Y134.554
G1 F1200 X54.619 Y115.454 E32.5632
G1 X54.666 Y115.214 E32.5733
G1 X54.791 Y114.996 E32.5836
G1 X54.878 Y114.909 E32.5887
G1 X55.088 Y114.786 E32.5987
G1 X55.339 Y114.734 E32.6092
G1 X74.439 Y114.734 E33.3947
G1 X74.560 Y114.750 E33.3997
G1 X74.679 Y114.781 E33.4048
G1 X74.897 Y114.906 E33.4151
G1 X74.984 Y114.993 E33.4202
G1 X75.107 Y115.203 E33.4302
G1 X75.159 Y115.454 E33.4407
G1 X75.159 Y134.554 E34.2262
G1 X75.112 Y134.794 E34.2363
G1 X74.987 Y135.012 E34.2466
G1 X74.900 Y135.099 E34.2517
G1 X74.690 Y135.222 E34.2617
G1 X74.439 Y135.274 E34.2722
G1 X55.339 Y135.274 E35.0577
G1 X55.099 Y135.227 E35.0678
G1 X54.881 Y135.102 E35.0781
G1 X54.794 Y135.015 E35.0832
G1 X54.671 Y134.805 E35.0932
G1 X54.619 Y134.554 E35.1037
G0 F9000 X55.099 Y134.554
G1 F1200 X55.099 Y115.454 E35.8892
G1 X55.130 Y115.335 E35.8943
G1 X55.217 Y115.248 E35.8993
G1 X55.339 Y115.214 E35.9045
G1 X74.439 Y115.214 E36.6900
G1 X74.558 Y115.245 E36.6951
G1 X74.645 Y115.332 E36.7002
G1 X74.679 Y115.454 E36.7054
G1 X74.679 Y134.554 E37.4909
G1 X74.648 Y134.673 E37.4959
G1 X74.561 Y134.760 E37.5010
G1 X74.439 Y134.794 E37.5062
G1 X55.339 Y134.794 E38.2917
G1 X55.220 Y134.763 E38.2967
G1 X55.133 Y134.676 E38.3018
G1 X55.099 Y134.554 E38.3070
G1 F2400 E37.2070
G0 F9000 X78.819 Y134.554
G1 F1500 E38.3070
G1 F1200 X78.819 Y115.454 E39.0925
G1 X78.882 Y115.042 E39.1096
G1 X78.960 Y114.807 E39.1198
G1 X79.207 Y114.400 E39.1394
G1 X79.294 Y114.298 E39.1449
G1 X79.552 Y114.081 E39.1588
G1 X79.833 Y113.924 E39.1720
G1 X80.067 Y113.843 E39.1822
G1 X80.499 Y113.774 E39.2002
G1 X99.662 Y113.778 E39.9883
G1 X100.053 Y113.846 E40.0046
G1 X100.259 Y113.920 E40.0136
G1 X100.535 Y114.074 E40.0266
G1 X100.799 Y114.293 E40.0407
G1 X100.886 Y114.393 E40.0461
G1 X101.129 Y114.788 E40.0652
G1 X101.210 Y115.022 E40.0754
G1 X101.279 Y115.454 E40.0934
G1 X101.279 Y134.554 E40.8789
G1 X101.216 Y134.966 E40.8960
G1 X101.138 Y135.201 E40.9062
G1 X100.891 Y135.608 E40.9258
G1 X100.804 Y135.710 E40.9313
G1 X100.546 Y135.927 E40.9451
G1 X100.265 Y136.084 E40.9584
G1 X100.031 Y136.165 E40.9686
G1 X99.599 Y136.234 E40.9866
G1 X80.499 Y136.234 E41.7720
G1 X80.087 Y136.171 E41.7892
G1 X79.852 Y136.093 E41.7994
G1 X79.445 Y135.846 E41.8190
G1 X79.343 Y135.759 E41.8245
G1 X79.126 Y135.501 E41.8383
G1 X78.969 Y135.220 E41.8516
G1 X78.888 Y134.986 E41.8617
G1 X78.819 Y134.554 E41.8797
G0 F9000 X79.299 Y134.554
G1 F1200 X79.299 Y115.454 E42.6652
G1 X79.355 Y115.122 E42.6791
G1 X79.410 Y114.975 E42.6855
G1 X79.612 Y114.657 E42.7010
G1 X79.795 Y114.495 E42.7111
G1 X80.005 Y114.372 E42.7211
G1 X80.151 Y114.316 E42.7275
G1 X80.499 Y114.254 E42.7421
G1 X99.662 Y114.258 E43.5301
G1 X99.960 Y114.317 E43.5426
G1 X100.078 Y114.365 E43.5479
G1 X100.296 Y114.490 E43.5582
G1 X100.483 Y114.654 E43.5684
G1 X100.681 Y114.960 E43.5834
G1 X100.737 Y115.106 E43.5898
G1 X100.799 Y115.454 E43.6044
G1 X100.799 Y134.554 E44.3899
G1 X100.743 Y134.886 E44.4037
G1 X100.688 Y135.033 E44.4102
G1 X100.486 Y135.351 E44.4257
G1 X100.303 Y135.513 E44.4357
G1 X100.093 Y135.636 E44.4457
G1 X99.947 Y135.692 E44.4522
G1 X99.599 Y135.754 E44.4667
G1 X80.499 Y135.754 E45.2522
G1 X80.167 Y135.698 E45.2660
G1 X80.020 Y135.643 E45.2725
G1 X79.702 Y135.441 E45.2880
