;Sliced by ideaMaker 5.0.6.8380, 2024-10-18 01:44:41 UTC+0200
;Slicer Version: 5.0.6.8380
;Dimension: 330.000 250.000 320.000 0.400 0.400
;Plate Shape: 0
;Origin Center: 0
;Extruder Offset #1: 0.000 0.000
;Filament Diameter #1: 1.724
;Filament Diameter #2: 1.740
;Filament Compensation #1: 100.00
;Filament Compensation #2: 100.00
;Filament Density #1: 1240.00
;Filament Density #2: 1240.00
;Filament Type #1: PETG blanc
;Filament Type #2: PLA
;Filament Name #1: IFAST PETG BLANC SUNLU calibration Dimensions + Epaisseur
;Filament Name #2: IFAST PLA ROUGE
;Firmware: Marlin
;Bounding Box: 28.179 301.775 75.190 183.160 0.000 20.000
;Model Gap: 0.000
;Custom Toolhead: T1 T0
M221 T1 S100.00
G28
G0 X0 Y0 Z50 F3600
M190 S65
M104 T0 S205
M109 T1 S235
M109 T0 S205
G0 X0 Y6 Z0.3 F3600
T1
G92 E-19
G1 X330 E0 F2400
T0
G92 E-19
G0 X330 Y4 F3600
G1 X5 E0 F2400
; Température de l'enciente
; Attention au temperature du PLA  !
; On fixe la temperature de l'enceinte à 50°C
;M141 S50
; On fixe la temperature de l'enceinte à 40°C
M141 S40
M107
M1001
;TOTAL_NUM: 34
;PRINTING_TIME: 0
;REMAINING_TIME: 16883
;LAYER:0
;Z:0.200
;HEIGHT:0.200
M104 T1 S235
M221 T1 S100.00
;PRINTING: NON-OBJECT
;PRINTING_ID: -1
T1
M204 S1000.00
M205 X8.00 Y8.00
G0 F9000 X35.129 Y167.913
G0 F300 Z0.200
;TYPE:SKIRT
;WIDTH:0.480
G1 F1200 X34.730 Y168.055 E0.0174
G1 X34.260 Y168.330 E0.0398
G1 X33.881 Y168.663 E0.0606
G1 X33.705 Y168.886 E0.0722
G1 X33.367 Y169.480 E0.1003
G1 X33.248 Y169.873 E0.1172
G1 X33.179 Y170.323 E0.1360
G1 X33.170 Y179.569 E0.5162
G1 X33.287 Y180.283 E0.5460
G1 X33.435 Y180.671 E0.5630
G1 X33.687 Y181.096 E0.5834
G1 X33.931 Y181.387 E0.5990
G1 X34.144 Y181.581 E0.6108
G1 X34.687 Y181.922 E0.6372
G1 X35.236 Y182.113 E0.6611
G1 X35.792 Y182.190 E0.6842
G1 X44.929 Y182.190 E1.0599
G1 X45.643 Y182.073 E1.0897
G1 X46.031 Y181.925 E1.1068
G1 X46.456 Y181.673 E1.1271
G1 X46.747 Y181.429 E1.1427
G1 X46.941 Y181.216 E1.1546
G1 X47.282 Y180.673 E1.1809
G1 X47.473 Y180.124 E1.2048
G1 X47.550 Y179.568 E1.2279
G1 X47.543 Y170.345 E1.6072
G1 X47.454 Y169.795 E1.6301
G1 X47.338 Y169.444 E1.6453
G1 X46.928 Y168.766 E1.6779
G1 X46.738 Y168.563 E1.6893
G1 X46.442 Y168.317 E1.7052
G1 X46.025 Y168.070 E1.7251
G1 X45.546 Y167.900 E1.7460
G1 X44.994 Y167.814 E1.7690
G1 X35.678 Y167.819 E2.1521
G1 X35.129 Y167.913 E2.1750
G0 F9000 X35.294 Y167.807
G1 F1200 X45.435 Y167.807 E2.5921
G1 X45.850 Y167.864 E2.6093
G1 X46.198 Y167.976 E2.6243
G1 X46.528 Y168.146 E2.6396
G1 X46.841 Y168.386 E2.6558
G1 X47.082 Y168.645 E2.6704
G1 X47.295 Y168.970 E2.6863
G1 X47.437 Y169.300 E2.7011
G1 X47.527 Y169.680 E2.7172
G1 X47.560 Y170.067 E2.7331
G1 X47.553 Y180.075 E3.1447
G1 X47.496 Y180.490 E3.1620
G1 X47.385 Y180.837 E3.1769
G1 X47.211 Y181.172 E3.1925
G1 X47.024 Y181.426 E3.2054
G1 X46.757 Y181.689 E3.2208
G1 X46.594 Y181.812 E3.2292
G1 X46.212 Y182.019 E3.2471
G1 X45.872 Y182.133 E3.2619
G1 X45.743 Y182.159 E3.2673
G1 X45.287 Y182.200 E3.2861
G1 X35.285 Y182.193 E3.6974
G1 X34.870 Y182.136 E3.7147
G1 X34.523 Y182.025 E3.7296
G1 X34.188 Y181.851 E3.7452
G1 X33.934 Y181.664 E3.7581
G1 X33.667 Y181.392 E3.7738
G1 X33.549 Y181.238 E3.7818
G1 X33.341 Y180.852 E3.7998
G1 X33.227 Y180.512 E3.8146
G1 X33.201 Y180.383 E3.8200
G1 X33.160 Y179.927 E3.8388
G1 X33.167 Y169.925 E4.2501
G1 X33.224 Y169.510 E4.2674
G1 X33.335 Y169.163 E4.2824
G1 X33.512 Y168.823 E4.2981
G1 X33.690 Y168.581 E4.3105
G1 X34.006 Y168.274 E4.3286
G1 X34.163 Y168.163 E4.3365
G1 X34.440 Y168.012 E4.3495
G1 X34.848 Y167.868 E4.3673
G1 X35.294 Y167.807 E4.3858
G0 F9000 X35.266 Y167.327
G1 F1200 X45.465 Y167.327 E4.8052
G1 X45.958 Y167.395 E4.8257
G1 X46.386 Y167.532 E4.8442
G1 X46.785 Y167.738 E4.8626
G1 X47.163 Y168.028 E4.8822
G1 X47.464 Y168.351 E4.9004
G1 X47.719 Y168.741 E4.9195
G1 X47.894 Y169.148 E4.9378
G1 X48.002 Y169.602 E4.9570
G1 X48.040 Y170.051 E4.9755
G1 X48.033 Y180.105 E5.3890
G1 X47.965 Y180.598 E5.4094
G1 X47.829 Y181.023 E5.4278
G1 X47.619 Y181.427 E5.4465
G1 X47.388 Y181.742 E5.4626
G1 X47.071 Y182.053 E5.4808
G1 X46.858 Y182.215 E5.4918
G1 X46.403 Y182.461 E5.5131
G1 X45.997 Y182.597 E5.5307
G1 X45.810 Y182.635 E5.5386
G1 X45.308 Y182.680 E5.5593
G1 X35.255 Y182.673 E5.9727
G1 X34.762 Y182.605 E5.9932
G1 X34.337 Y182.469 E6.0115
G1 X33.933 Y182.259 E6.0303
G1 X33.618 Y182.028 E6.0463
G1 X33.306 Y181.710 E6.0646
G1 X33.145 Y181.498 E6.0756
G1 X32.899 Y181.043 E6.0969
G1 X32.763 Y180.637 E6.1145
G1 X32.725 Y180.450 E6.1223
G1 X32.680 Y179.948 E6.1430
G1 X32.687 Y169.895 E6.5565
G1 X32.755 Y169.402 E6.5769
G1 X32.891 Y168.977 E6.5953
G1 X33.103 Y168.569 E6.6142
G1 X33.329 Y168.263 E6.6299
G1 X33.696 Y167.906 E6.6509
G1 X33.911 Y167.753 E6.6618
G1 X34.246 Y167.571 E6.6774
G1 X34.717 Y167.405 E6.6980
G1 X34.960 Y167.358 E6.7082
G1 X35.266 Y167.327 E6.7208
G1 F2400 E5.6208
G0 F9000 X35.281 Y168.368
G1 F1500 E6.7208
G1 F1200 X34.966 Y168.473 E6.7345
G1 X34.572 Y168.695 E6.7531
G1 X34.252 Y168.968 E6.7704
G1 X34.118 Y169.131 E6.7790
G1 X33.824 Y169.626 E6.8027
G1 X33.722 Y169.946 E6.8165
G1 X33.653 Y170.396 E6.8352
G1 X33.650 Y179.569 E7.2125
G1 X33.738 Y180.120 E7.2354
G1 X33.851 Y180.432 E7.2491
G1 X34.055 Y180.788 E7.2660
G1 X34.299 Y181.079 E7.2816
G1 X34.460 Y181.220 E7.2904
G1 X34.938 Y181.513 E7.3134
G1 X35.306 Y181.638 E7.3294
G1 X35.792 Y181.710 E7.3496
G1 X44.929 Y181.710 E7.7254
G1 X45.480 Y181.622 E7.7483
G1 X45.792 Y181.509 E7.7620
G1 X46.148 Y181.305 E7.7788
G1 X46.439 Y181.061 E7.7945
G1 X46.580 Y180.900 E7.8033
G1 X46.873 Y180.422 E7.8263
G1 X46.998 Y180.054 E7.8423
G1 X47.070 Y179.568 E7.8625
G1 X47.063 Y170.345 E8.2418
G1 X46.981 Y169.878 E8.2613
G1 X46.885 Y169.602 E8.2733
G1 X46.572 Y169.088 E8.2981
G1 X46.431 Y168.932 E8.3067
G1 X46.135 Y168.686 E8.3225
G1 X45.787 Y168.487 E8.3390
G1 X45.467 Y168.373 E8.3530
G1 X44.994 Y168.294 E8.3727
G1 X35.753 Y168.293 E8.7528
G1 X35.281 Y168.368 E8.7724
G0 F9000 X35.378 Y168.839
G1 F1200 X35.810 Y168.770 E8.7904
G1 X44.973 Y168.774 E9.1672
G1 X45.364 Y168.842 E9.1836
G1 X45.570 Y168.916 E9.1926
G1 X45.846 Y169.070 E9.2056
G1 X46.110 Y169.289 E9.2197
G1 X46.197 Y169.389 E9.2251
G1 X46.440 Y169.784 E9.2442
G1 X46.521 Y170.018 E9.2544
G1 X46.583 Y170.366 E9.2689
G1 X46.590 Y179.550 E9.6466
G1 X46.527 Y179.962 E9.6637
G1 X46.449 Y180.197 E9.6739
G1 X46.202 Y180.604 E9.6935
G1 X46.115 Y180.706 E9.6990
G1 X45.857 Y180.923 E9.7129
G1 X45.576 Y181.080 E9.7261
G1 X45.342 Y181.161 E9.7363
G1 X44.910 Y181.230 E9.7543
G1 X35.810 Y181.230 E10.1285
G1 X35.398 Y181.167 E10.1457
G1 X35.163 Y181.089 E10.1559
G1 X34.756 Y180.842 E10.1754
G1 X34.654 Y180.755 E10.1809
G1 X34.437 Y180.497 E10.1948
G1 X34.280 Y180.216 E10.2080
G1 X34.199 Y179.982 E10.2182
G1 X34.130 Y179.550 E10.2362
G1 X34.130 Y170.450 E10.6105
G1 X34.193 Y170.038 E10.6276
G1 X34.271 Y169.803 E10.6378
G1 X34.518 Y169.396 E10.6574
G1 X34.605 Y169.294 E10.6629
G1 X34.863 Y169.077 E10.6767
G1 X35.144 Y168.920 E10.6900
G1 X35.378 Y168.839 E10.7002
G0 F9000 X35.316 Y169.368
G1 F1200 X35.462 Y169.312 E10.7066
G1 X35.810 Y169.250 E10.7211
G1 X44.973 Y169.254 E11.0980
G1 X45.271 Y169.313 E11.1105
G1 X45.389 Y169.361 E11.1157
G1 X45.607 Y169.486 E11.1260
G1 X45.794 Y169.650 E11.1363
G1 X45.992 Y169.956 E11.1512
G1 X46.048 Y170.102 E11.1577
G1 X46.110 Y170.450 E11.1722
G1 X46.110 Y179.550 E11.5464
G1 X46.054 Y179.882 E11.5603
G1 X45.999 Y180.029 E11.5668
G1 X45.797 Y180.347 E11.5822
G1 X45.614 Y180.509 E11.5923
G1 X45.404 Y180.632 E11.6023
G1 X45.258 Y180.688 E11.6087
G1 X44.910 Y180.750 E11.6233
G1 X35.810 Y180.750 E11.9975
G1 X35.478 Y180.694 E12.0114
G1 X35.331 Y180.639 E12.0178
G1 X35.013 Y180.437 E12.0333
G1 X34.851 Y180.254 E12.0434
G1 X34.728 Y180.044 E12.0534
G1 X34.672 Y179.898 E12.0598
G1 X34.610 Y179.550 E12.0743
G1 X34.610 Y170.450 E12.4486
G1 X34.666 Y170.118 E12.4624
G1 X34.721 Y169.971 E12.4689
G1 X34.923 Y169.653 E12.4844
G1 X35.106 Y169.491 E12.4944
G1 X35.316 Y169.368 E12.5044
G1 F2400 E11.4044
G0 F9000 X35.810 Y169.730
G1 F1500 E12.5044
G1 F1200 X44.910 Y169.730 E12.8787
G1 X45.031 Y169.746 E12.8837
G1 X45.150 Y169.777 E12.8887
G1 X45.368 Y169.902 E12.8991
G1 X45.455 Y169.989 E12.9041
G1 X45.578 Y170.199 E12.9141
G1 X45.630 Y170.450 E12.9247
G1 X45.630 Y179.550 E13.2989
G1 X45.583 Y179.790 E13.3090
G1 X45.458 Y180.008 E13.3193
G1 X45.371 Y180.095 E13.3244
G1 X45.161 Y180.218 E13.3344
G1 X44.910 Y180.270 E13.3449
G1 X35.810 Y180.270 E13.7192
G1 X35.570 Y180.223 E13.7292
G1 X35.352 Y180.098 E13.7396
G1 X35.265 Y180.011 E13.7446
G1 X35.142 Y179.801 E13.7546
G1 X35.090 Y179.550 E13.7652
G1 X35.090 Y170.450 E14.1394
G1 X35.137 Y170.210 E14.1495
G1 X35.262 Y169.992 E14.1598
G1 X35.349 Y169.905 E14.1649
G1 X35.559 Y169.782 E14.1749
G1 X35.810 Y169.730 E14.1854
G0 F9000 X35.810 Y170.210
G1 F1200 X44.910 Y170.210 E14.5596
G1 X45.029 Y170.241 E14.5647
G1 X45.116 Y170.328 E14.5698
G1 X45.150 Y170.450 E14.5750
G1 X45.150 Y179.550 E14.9492
G1 X45.119 Y179.669 E14.9543
G1 X45.032 Y179.756 E14.9593
G1 X44.910 Y179.790 E14.9645
G1 X35.810 Y179.790 E15.3388
G1 X35.691 Y179.759 E15.3438
G1 X35.604 Y179.672 E15.3489
G1 X35.570 Y179.550 E15.3541
G1 X35.570 Y170.450 E15.7283
G1 X35.601 Y170.331 E15.7334
G1 X35.688 Y170.244 E15.7385
G1 X35.810 Y170.210 E15.7437
G1 F2400 E14.6437
G0 F9000 X30.339 Y136.255
G1 F1500 E15.7437
G1 F1200 X29.927 Y136.192 E15.7608
G1 X29.692 Y136.114 E15.7710
G1 X29.285 Y135.867 E15.7906
G1 X29.183 Y135.780 E15.7961
G1 X28.966 Y135.522 E15.8099
G1 X28.809 Y135.241 E15.8232
G1 X28.728 Y135.007 E15.8334
G1 X28.659 Y134.575 E15.8514
G1 X28.659 Y115.475 E16.6368
G1 X28.722 Y115.063 E16.6540
G1 X28.800 Y114.828 E16.6642
G1 X29.047 Y114.421 E16.6837
G1 X29.134 Y114.319 E16.6893
G1 X29.392 Y114.102 E16.7031
G1 X29.673 Y113.945 E16.7164
G1 X29.907 Y113.864 E16.7265
G1 X30.339 Y113.795 E16.7445
G1 X49.502 Y113.799 E17.5326
G1 X49.893 Y113.867 E17.5489
G1 X50.099 Y113.941 E17.5579
G1 X50.375 Y114.095 E17.5709
G1 X50.639 Y114.314 E17.5850
G1 X50.726 Y114.414 E17.5905
G1 X50.969 Y114.809 E17.6096
G1 X51.050 Y115.043 E17.6197
G1 X51.119 Y115.475 E17.6377
G1 X51.119 Y134.575 E18.4232
G1 X51.056 Y134.987 E18.4404
G1 X50.978 Y135.222 E18.4506
G1 X50.731 Y135.629 E18.4701
G1 X50.644 Y135.731 E18.4756
G1 X50.386 Y135.948 E18.4895
G1 X50.105 Y136.105 E18.5027
G1 X49.871 Y136.186 E18.5129
G1 X49.439 Y136.255 E18.5309
G1 X30.339 Y136.255 E19.3164
G0 F9000 X30.339 Y135.775
G1 F1200 X30.007 Y135.719 E19.3303
G1 X29.860 Y135.664 E19.3367
G1 X29.542 Y135.462 E19.3522
G1 X29.380 Y135.279 E19.3623
G1 X29.257 Y135.069 E19.3723
G1 X29.201 Y134.923 E19.3787
G1 X29.139 Y134.575 E19.3932
G1 X29.139 Y115.475 E20.1787
G1 X29.195 Y115.143 E20.1926
G1 X29.250 Y114.996 E20.1990
G1 X29.452 Y114.678 E20.2145
G1 X29.635 Y114.516 E20.2246
G1 X29.845 Y114.393 E20.2346
G1 X29.991 Y114.337 E20.2410
G1 X30.339 Y114.275 E20.2555
G1 X49.502 Y114.279 E21.0436
G1 X49.800 Y114.338 E21.0561
G1 X49.918 Y114.386 E21.0614
G1 X50.136 Y114.511 E21.0717
G1 X50.323 Y114.675 E21.0819
G1 X50.521 Y114.981 E21.0969
G1 X50.577 Y115.127 E21.1033
G1 X50.639 Y115.475 E21.1179
G1 X50.639 Y134.575 E21.9034
G1 X50.583 Y134.907 E21.9172
G1 X50.528 Y135.054 E21.9237
G1 X50.326 Y135.372 E21.9392
G1 X50.143 Y135.534 E21.9492
G1 X49.933 Y135.657 E21.9592
G1 X49.787 Y135.713 E21.9656
G1 X49.439 Y135.775 E21.9802
G1 X30.339 Y135.775 E22.7657
G0 F9000 X30.339 Y135.295
G1 F1200 X30.099 Y135.248 E22.7757
G1 X29.881 Y135.123 E22.7861
G1 X29.794 Y135.036 E22.7911
G1 X29.671 Y134.826 E22.8011
G1 X29.619 Y134.575 E22.8117
G1 X29.619 Y115.475 E23.5972
G1 X29.666 Y115.235 E23.6072
G1 X29.791 Y115.017 E23.6176
G1 X29.878 Y114.930 E23.6226
G1 X30.088 Y114.807 E23.6326
G1 X30.339 Y114.755 E23.6432
G1 X49.439 Y114.755 E24.4287
G1 X49.560 Y114.771 E24.4337
G1 X49.679 Y114.802 E24.4387
G1 X49.897 Y114.927 E24.4491
G1 X49.984 Y115.014 E24.4541
G1 X50.107 Y115.224 E24.4641
G1 X50.159 Y115.475 E24.4747
G1 X50.159 Y134.575 E25.2602
G1 X50.112 Y134.815 E25.2702
G1 X49.987 Y135.033 E25.2806
G1 X49.900 Y135.120 E25.2856
G1 X49.690 Y135.243 E25.2956
G1 X49.439 Y135.295 E25.3062
G1 X30.339 Y135.295 E26.0917
G0 F9000 X30.339 Y134.815
G1 F1200 X30.220 Y134.784 E26.0967
G1 X30.133 Y134.697 E26.1018
G1 X30.099 Y134.575 E26.1070
G1 X30.099 Y115.475 E26.8925
G1 X30.130 Y115.356 E26.8975
G1 X30.217 Y115.269 E26.9026
G1 X30.339 Y115.235 E26.9078
G1 X49.439 Y115.235 E27.6933
G1 X49.558 Y115.266 E27.6983
G1 X49.645 Y115.353 E27.7034
G1 X49.679 Y115.475 E27.7086
G1 X49.679 Y134.575 E28.4941
G1 X49.648 Y134.694 E28.4992
G1 X49.561 Y134.781 E28.5042
G1 X49.439 Y134.815 E28.5094
G1 X30.339 Y134.815 E29.2949
G1 F2400 E28.1949
G0 F9000 X53.659 Y134.554
G1 F1500 E29.2949
G1 F1200 X53.659 Y115.454 E30.0804
G1 X53.722 Y115.042 E30.0975
G1 X53.800 Y114.807 E30.1077
G1 X54.047 Y114.400 E30.1273
G1 X54.134 Y114.298 E30.1328
G1 X54.392 Y114.081 E30.1467
G1 X54.673 Y113.924 E30.1599
G1 X54.907 Y113.843 E30.1701
G1 X55.339 Y113.774 E30.1881
G1 X74.502 Y113.778 E30.9762
G1 X74.893 Y113.846 E30.9925
G1 X75.099 Y113.920 E31.0015
G1 X75.375 Y114.074 E31.0145
G1 X75.639 Y114.293 E31.0286
G1 X75.726 Y114.393 E31.0341
G1 X75.969 Y114.788 E31.0531
G1 X76.050 Y115.022 E31.0633
G1 X76.119 Y115.454 E31.0813
G1 X76.119 Y134.554 E31.8668
G1 X76.056 Y134.966 E31.8839
G1 X75.978 Y135.201 E31.8941
G1 X75.731 Y135.608 E31.9137
G1 X75.644 Y135.710 E31.9192
G1 X75.386 Y135.927 E31.9331
G1 X75.105 Y136.084 E31.9463
G1 X74.871 Y136.165 E31.9565
G1 X74.439 Y136.234 E31.9745
G1 X55.339 Y136.234 E32.7600
G1 X54.927 Y136.171 E32.7771
G1 X54.692 Y136.093 E32.7873
G1 X54.285 Y135.846 E32.8069
G1 X54.183 Y135.759 E32.8124
G1 X53.966 Y135.501 E32.8263
G1 X53.809 Y135.220 E32.8395
G1 X53.728 Y134.986 E32.8497
G1 X53.659 Y134.554 E32.8677
G0 F9000 X54.139 Y134.554
G1 F1200 X54.139 Y115.454 E33.6532
G1 X54.195 Y115.122 E33.6670
G1 X54.250 Y114.975 E33.6735
G1 X54.452 Y114.657 E33.6890
G1 X54.635 Y114.495 E33.6990
G1 X54.845 Y114.372 E33.7090
G1 X54.991 Y114.316 E33.7154
G1 X55.339 Y114.254 E33.7300
G1 X74.502 Y114.258 E34.5181
G1 X74.800 Y114.317 E34.5306
G1 X74.918 Y114.365 E34.5358
G1 X75.136 Y114.490 E34.5461
G1 X75.323 Y114.654 E34.5564
G1 X75.521 Y114.960 E34.5713
G1 X75.577 Y115.106 E34.5778
G1 X75.639 Y115.454 E34.5923
G1 X75.639 Y134.554 E35.3778
G1 X75.583 Y134.886 E35.3916
G1 X75.528 Y135.033 E35.3981
G1 X75.326 Y135.351 E35.4136
G1 X75.143 Y135.513 E35.4236
G1 X74.933 Y135.636 E35.4337
G1 X74.787 Y135.692 E35.4401
G1 X74.439 Y135.754 E35.4546
G1 X55.339 Y135.754 E36.2401
G1 X55.007 Y135.698 E36.2540
G1 X54.860 Y135.643 E36.2604
G1 X54.542 Y135.441 E36.2759
G1 X54.380 Y135.258 E36.2860
G1 X54.257 Y135.048 E36.2960
G1 X54.201 Y134.902 E36.3024
G1 X54.139 Y134.554 E36.3169
G0 F9000 X54.619 Y134.554
G1 F1200 X54.619 Y115.454 E37.1024
G1 X54.666 Y115.214 E37.1125
G1 X54.791 Y114.996 E37.1228
G1 X54.878 Y114.909 E37.1279
G1 X55.088 Y114.786 E37.1379
G1 X55.339 Y114.734 E37.1484
G1 X74.439 Y114.734 E37.9339
G1 X74.560 Y114.750 E37.9389
G1 X74.679 Y114.781 E37.9440
G1 X74.897 Y114.906 E37.9543
G1 X74.984 Y114.993 E37.9594
G1 X75.107 Y115.203 E37.9694
G1 X75.159 Y115.454 E37.9799
G1 X75.159 Y134.554 E38.7654
G1 X75.112 Y134.794 E38.7755
G1 X74.987 Y135.012 E38.7858
G1 X74.900 Y135.099 E38.7909
G1 X74.690 Y135.222 E38.8009
G1 X74.439 Y135.274 E38.8114
G1 X55.339 Y135.274 E39.5969
G1 X55.099 Y135.227 E39.6070
G1 X54.881 Y135.102 E39.6173
G1 X54.794 Y135.015 E39.6224
G1 X54.671 Y134.805 E39.6324
G1 X54.619 Y134.554 E39.6429
G0 F9000 X55.099 Y134.554
G1 F1200 X55.099 Y115.454 E40.4284
G1 X55.130 Y115.335 E40.4335
G1 X55.217 Y115.248 E40.4385
G1 X55.339 Y115.214 E40.4437
